src/status/16/strawberry-panel.svg

<svg width="16" height="16" version="1.1" viewBox="0 0 16 16" xmlns="http://www.w3.org/2000/svg">
 <g id="surface1">
  <path d="m11.40625 6.296875c-0.71875-0.128906-1.441406-0.453125-2.101562-0.863281-0.597657-0.375-1.160157-0.761719-1.609376-1.203125-0.777343-0.621094-1.523437-1.152344-2.597656-1.074219-0.992187 0.074219-1.683594 0.710938-2.152344 1.566406-0.6875 1.261719-0.898437 2.984375-0.871093 4.183594 0.019531 0.992188 0.183593 2.019531 0.472656 3.085938 0.273437 1.007812 0.660156 2.046874 1.148437 3.113281 1.136719-0.132813 2.152344-0.328125 3.054688-0.574219 0.957031-0.257812 1.789062-0.574219 2.523438-0.9375 0.890624-0.445312 2.191406-1.371094 3.117187-2.449219 0.652344-0.761719 1.113281-1.59375 1.074219-2.359375-0.007813-0.175781-0.039063-0.347656-0.089844-0.515625-0.054688-0.171875-0.128906-0.339843-0.226562-0.507812-0.488282-0.839844-1.078126-1.195313-1.742188-1.464844zm-4.78125 0.097656c-0.089844 0.152344-0.265625 0.28125-0.648438 0.433594-0.023437-0.457031-0.015624-0.617187 0.074219-0.773437 0.089844-0.152344 0.265625-0.257813 0.457031-0.148438 0.1875 0.109375 0.207032 0.332031 0.117188 0.488281zm-1.65625-0.957031c-0.089844 0.152344-0.265625 0.285156-0.648438 0.4375-0.023437-0.457031-0.015624-0.621094 0.074219-0.777344 0.089844-0.152344 0.265625-0.257812 0.457031-0.148437 0.191407 0.113281 0.207032 0.332031 0.117188 0.488281zm1.164062 7.976562c-0.089843 0.152344-0.265624 0.28125-0.648437 0.433594-0.023437-0.457031-0.015625-0.617187 0.074219-0.773437 0.089844-0.152344 0.265625-0.257813 0.457031-0.148438s0.207031 0.332031 0.117187 0.488281zm3.65625-2.839843c0.191407 0.109375 0.207032 0.332031 0.117188 0.488281-0.085938 0.152344-0.265625 0.28125-0.648438 0.433594-0.023437-0.457032-0.015624-0.617188 0.074219-0.773438 0.089844-0.15625 0.265625-0.257812 0.457031-0.148437zm-5.28125 1.769531c-0.089843 0.152344-0.265624 0.28125-0.648437 0.433594-0.023437-0.457032-0.015625-0.617188 0.074219-0.773438 0.089844-0.152344 0.265625-0.257812 0.457031-0.148437 0.1875 0.109375 0.207031 0.332031 0.117187 0.488281zm0.070313-2.101562c-0.089844 0.152343-0.269531 0.28125-0.652344 0.433593-0.023437-0.457031-0.011719-0.617187 0.074219-0.773437 0.089844-0.152344 0.269531-0.257813 0.457031-0.148438 0.191407 0.109375 0.207031 0.332032 0.121094 0.488282zm3.410156 1.96875c-0.089843 0.15625-0.265625 0.285156-0.648437 0.4375-0.023438-0.457032-0.015625-0.617188 0.074218-0.773438 0.089844-0.15625 0.265626-0.257812 0.457032-0.148438 0.191406 0.109376 0.207031 0.332032 0.117187 0.484376zm3.863281-2.800782c-0.089843 0.15625-0.265624 0.285156-0.648437 0.4375-0.023437-0.457031-0.015625-0.617187 0.074219-0.773437s0.265625-0.257813 0.457031-0.148438 0.207031 0.332031 0.117187 0.484375zm-5.5 1.640625c-0.089843 0.152344-0.265624 0.285157-0.648437 0.4375-0.023437-0.457031-0.015625-0.621093 0.074219-0.777343 0.089844-0.152344 0.265625-0.257813 0.457031-0.144532 0.191406 0.105469 0.207031 0.328125 0.117187 0.484375zm2.007813-1.050781c-0.085937 0.15625-0.265625 0.285156-0.648437 0.4375-0.023438-0.457031-0.015626-0.617188 0.074218-0.773438 0.089844-0.152343 0.269532-0.257812 0.457032-0.148437 0.191406 0.109375 0.207031 0.332031 0.117187 0.484375zm1.683594-2.050781c0.1875 0.109375 0.203125 0.332031 0.117187 0.484375-0.089844 0.152344-0.269531 0.285156-0.652344 0.4375-0.019531-0.457032-0.011718-0.621094 0.078126-0.773438 0.085937-0.15625 0.265624-0.261718 0.457031-0.148437zm-3.613281 0.9375c-0.089844 0.152343-0.265626 0.285156-0.648438 0.4375-0.023438-0.457031-0.015625-0.621094 0.074219-0.773438 0.089843-0.15625 0.265625-0.261719 0.457031-0.148437 0.191406 0.109375 0.207031 0.332031 0.117188 0.484375zm1.976562-1.882813c0.1875 0.109375 0.207031 0.332032 0.117188 0.484375-0.089844 0.15625-0.265626 0.285157-0.648438 0.4375-0.023438-0.457031-0.015625-0.617187 0.074219-0.773437 0.089843-0.15625 0.265625-0.257813 0.457031-0.148438zm-3.65625 0.914063c-0.089844 0.152343-0.269531 0.28125-0.652344 0.433593-0.023437-0.457031-0.015625-0.617187 0.074219-0.773437s0.265625-0.257813 0.460937-0.148437c0.1875 0.109374 0.203126 0.332031 0.117188 0.488281z" style="fill:rgb(81.960785%,21.568628%,17.647059%)"/>
  <path d="m6.953125 3.90625c0.269531 0.191406 0.53125 0.402344 0.792969 0.617188 0.46875 0.378906 0.953125 0.769531 1.511718 1.085937 0.535157 0.304687 1.023438 0.570313 1.515626 0.746094 0.359374 0.132812 0.734374 0.179687 1.0625 0.335937h0.183593c0.683594-0.03125 1.34375-0.304687 1.910157-0.933594-0.347657-0.257812-0.6875-0.4375-1.015626-0.550781-0.402343-0.132812-0.792968-0.164062-1.167968-0.105469-0.132813 0.019532-0.253906-0.070312-0.273438-0.199218-0.015625-0.089844 0.023438-0.175782 0.09375-0.230469 0.429688-0.320313 0.8125-0.683594 1.078125-1.078125h0.003907c0.191406-0.28125 0.324218-0.578125 0.375-0.878906-0.339844-0.109375-0.695313-0.097656-1.046876 0.007812-0.457031 0.140625-0.910156 0.445313-1.328124 0.859375-0.089844 0.097657-0.246094 0.097657-0.339844 0.003907-0.050782-0.054688-0.074219-0.125-0.070313-0.195313 0.0625-0.617187 0.054688-1.230469-0.082031-1.722656-0.089844-0.328125-0.242188-0.597657-0.464844-0.773438-0.316406 0.203125-0.539062 0.464844-0.671875 0.769531-0.167969 0.378907-0.210937 0.832032-0.152343 1.324219 0.015624 0.128907-0.078126 0.25-0.207032 0.265625-0.097656 0.011719-0.1875-0.035156-0.234375-0.113281-0.300781-0.464844-0.625-0.855469-0.976562-1.164063-0.277344-0.238281-0.570313-0.429687-0.882813-0.554687-0.253906 1.007813-0.078125 1.792969 0.363282 2.445313 0.007812 0.011718 0.015624 0.023437 0.023437 0.039062z" style="fill:rgb(29.411766%,62.7451%,25.882354%)"/>
 </g>
</svg>

<svg xmlns="http://www.w3.org/2000/svg" xmlns:xlink="http://www.w3.org/1999/xlink" width="16" height="16" viewBox="0 0 16 16" version="1.1">
<g id="surface1">
<path style=" stroke:none;fill-rule:nonzero;fill:rgb(81.960785%,21.568628%,17.647059%);fill-opacity:1;" d="M 11.40625 6.296875 C 10.6875 6.167969 9.964844 5.84375 9.304688 5.433594 C 8.707031 5.058594 8.144531 4.671875 7.695312 4.230469 C 6.917969 3.609375 6.171875 3.078125 5.097656 3.15625 C 4.105469 3.230469 3.414062 3.867188 2.945312 4.722656 C 2.257812 5.984375 2.046875 7.707031 2.074219 8.90625 C 2.09375 9.898438 2.257812 10.925781 2.546875 11.992188 C 2.820312 13 3.207031 14.039062 3.695312 15.105469 C 4.832031 14.972656 5.847656 14.777344 6.75 14.53125 C 7.707031 14.273438 8.539062 13.957031 9.273438 13.59375 C 10.164062 13.148438 11.464844 12.222656 12.390625 11.144531 C 13.042969 10.382812 13.503906 9.550781 13.464844 8.785156 C 13.457031 8.609375 13.425781 8.4375 13.375 8.269531 C 13.320312 8.097656 13.246094 7.929688 13.148438 7.761719 C 12.660156 6.921875 12.070312 6.566406 11.40625 6.296875 Z M 6.625 6.394531 C 6.535156 6.546875 6.359375 6.675781 5.976562 6.828125 C 5.953125 6.371094 5.960938 6.210938 6.050781 6.054688 C 6.140625 5.902344 6.316406 5.796875 6.507812 5.90625 C 6.695312 6.015625 6.714844 6.238281 6.625 6.394531 Z M 4.96875 5.4375 C 4.878906 5.589844 4.703125 5.722656 4.320312 5.875 C 4.296875 5.417969 4.304688 5.253906 4.394531 5.097656 C 4.484375 4.945312 4.660156 4.839844 4.851562 4.949219 C 5.042969 5.0625 5.058594 5.28125 4.96875 5.4375 Z M 6.132812 13.414062 C 6.042969 13.566406 5.867188 13.695312 5.484375 13.847656 C 5.460938 13.390625 5.46875 13.230469 5.558594 13.074219 C 5.648438 12.921875 5.824219 12.816406 6.015625 12.925781 C 6.207031 13.035156 6.222656 13.257812 6.132812 13.414062 Z M 9.789062 10.574219 C 9.980469 10.683594 9.996094 10.90625 9.90625 11.0625 C 9.820312 11.214844 9.640625 11.34375 9.257812 11.496094 C 9.234375 11.039062 9.242188 10.878906 9.332031 10.722656 C 9.421875 10.566406 9.597656 10.464844 9.789062 10.574219 Z M 4.507812 12.34375 C 4.417969 12.496094 4.242188 12.625 3.859375 12.777344 C 3.835938 12.320312 3.84375 12.160156 3.933594 12.003906 C 4.023438 11.851562 4.199219 11.746094 4.390625 11.855469 C 4.578125 11.964844 4.597656 12.1875 4.507812 12.34375 Z M 4.578125 10.242188 C 4.488281 10.394531 4.308594 10.523438 3.925781 10.675781 C 3.902344 10.21875 3.914062 10.058594 4 9.902344 C 4.089844 9.75 4.269531 9.644531 4.457031 9.753906 C 4.648438 9.863281 4.664062 10.085938 4.578125 10.242188 Z M 7.988281 12.210938 C 7.898438 12.367188 7.722656 12.496094 7.339844 12.648438 C 7.316406 12.191406 7.324219 12.03125 7.414062 11.875 C 7.503906 11.71875 7.679688 11.617188 7.871094 11.726562 C 8.0625 11.835938 8.078125 12.058594 7.988281 12.210938 Z M 11.851562 9.410156 C 11.761719 9.566406 11.585938 9.695312 11.203125 9.847656 C 11.179688 9.390625 11.1875 9.230469 11.277344 9.074219 C 11.367188 8.917969 11.542969 8.816406 11.734375 8.925781 C 11.925781 9.035156 11.941406 9.257812 11.851562 9.410156 Z M 6.351562 11.050781 C 6.261719 11.203125 6.085938 11.335938 5.703125 11.488281 C 5.679688 11.03125 5.6875 10.867188 5.777344 10.710938 C 5.867188 10.558594 6.042969 10.453125 6.234375 10.566406 C 6.425781 10.671875 6.441406 10.894531 6.351562 11.050781 Z M 8.359375 10 C 8.273438 10.15625 8.09375 10.285156 7.710938 10.4375 C 7.6875 9.980469 7.695312 9.820312 7.785156 9.664062 C 7.875 9.511719 8.054688 9.40625 8.242188 9.515625 C 8.433594 9.625 8.449219 9.847656 8.359375 10 Z M 10.042969 7.949219 C 10.230469 8.058594 10.246094 8.28125 10.160156 8.433594 C 10.070312 8.585938 9.890625 8.71875 9.507812 8.871094 C 9.488281 8.414062 9.496094 8.25 9.585938 8.097656 C 9.671875 7.941406 9.851562 7.835938 10.042969 7.949219 Z M 6.429688 8.886719 C 6.339844 9.039062 6.164062 9.171875 5.78125 9.324219 C 5.757812 8.867188 5.765625 8.703125 5.855469 8.550781 C 5.945312 8.394531 6.121094 8.289062 6.3125 8.402344 C 6.503906 8.511719 6.519531 8.734375 6.429688 8.886719 Z M 8.40625 7.003906 C 8.59375 7.113281 8.613281 7.335938 8.523438 7.488281 C 8.433594 7.644531 8.257812 7.773438 7.875 7.925781 C 7.851562 7.46875 7.859375 7.308594 7.949219 7.152344 C 8.039062 6.996094 8.214844 6.894531 8.40625 7.003906 Z M 4.75 7.917969 C 4.660156 8.070312 4.480469 8.199219 4.097656 8.351562 C 4.074219 7.894531 4.082031 7.734375 4.171875 7.578125 C 4.261719 7.421875 4.4375 7.320312 4.632812 7.429688 C 4.820312 7.539062 4.835938 7.761719 4.75 7.917969 Z M 4.75 7.917969 "/>
<path style=" stroke:none;fill-rule:nonzero;fill:rgb(29.411766%,62.7451%,25.882354%);fill-opacity:1;" d="M 6.953125 3.90625 C 7.222656 4.097656 7.484375 4.308594 7.746094 4.523438 C 8.214844 4.902344 8.699219 5.292969 9.257812 5.609375 C 9.792969 5.914062 10.28125 6.179688 10.773438 6.355469 C 11.132812 6.488281 11.507812 6.535156 11.835938 6.691406 C 11.894531 6.691406 11.957031 6.691406 12.019531 6.691406 C 12.703125 6.660156 13.363281 6.386719 13.929688 5.757812 C 13.582031 5.5 13.242188 5.320312 12.914062 5.207031 C 12.511719 5.074219 12.121094 5.042969 11.746094 5.101562 C 11.613281 5.121094 11.492188 5.03125 11.472656 4.902344 C 11.457031 4.8125 11.496094 4.726562 11.566406 4.671875 C 11.996094 4.351562 12.378906 3.988281 12.644531 3.59375 L 12.648438 3.59375 C 12.839844 3.3125 12.972656 3.015625 13.023438 2.714844 C 12.683594 2.605469 12.328125 2.617188 11.976562 2.722656 C 11.519531 2.863281 11.066406 3.167969 10.648438 3.582031 C 10.558594 3.679688 10.402344 3.679688 10.308594 3.585938 C 10.257812 3.53125 10.234375 3.460938 10.238281 3.390625 C 10.300781 2.773438 10.292969 2.160156 10.15625 1.667969 C 10.066406 1.339844 9.914062 1.070312 9.691406 0.894531 C 9.375 1.097656 9.152344 1.359375 9.019531 1.664062 C 8.851562 2.042969 8.808594 2.496094 8.867188 2.988281 C 8.882812 3.117188 8.789062 3.238281 8.660156 3.253906 C 8.5625 3.265625 8.472656 3.21875 8.425781 3.140625 C 8.125 2.675781 7.800781 2.285156 7.449219 1.976562 C 7.171875 1.738281 6.878906 1.546875 6.566406 1.421875 C 6.3125 2.429688 6.488281 3.214844 6.929688 3.867188 C 6.9375 3.878906 6.945312 3.890625 6.953125 3.90625 Z M 6.953125 3.90625 "/>
</g>
</svg>
